X: 1
T:Brian O'Lynn
R:jig
D:Patrick Street: Irish Times
M:6/8
L:1/8
K:Ador
cBc A2G|EcB cde|dcA A2G|Ade fed|!
cBc A2G|EcB cde|dcA AGE|1 GED D2B:|2 GED D2f||!
~g3 ged|cAB c2d|e2a age|ed^c def|1 ~g3 ged|!
cAB cde|fed cAG|EAG A2f:|2 gba ged|cAB cde|!
fed cAG|EAG A2B|
